src/img/pin.svg

<svg width="34" height="42" viewBox="0 0 34 42" fill="none" xmlns="http://www.w3.org/2000/svg">
<path d="M28.3137 29.2842L17 41L5.68632 29.2842C3.44871 26.9671 1.92478 24.0148 1.30743 20.8008C0.690088 17.5869 1.00695 14.2555 2.21795 11.228C3.42896 8.2005 5.47983 5.61286 8.111 3.7923C10.7422 1.97173 13.8355 1 17 1C20.1645 1 23.258 1.97173 25.8891 3.7923C28.5203 5.61286 30.5711 8.2005 31.7821 11.228C32.9931 14.2555 33.3099 17.5869 32.6926 20.8008C32.0752 24.0148 30.5513 26.9671 28.3137 29.2842ZM17 21.2503C17.943 21.2503 18.8474 20.8624 19.5142 20.1719C20.181 19.4814 20.5555 18.5449 20.5555 17.5684C20.5555 16.5919 20.181 15.6554 19.5142 14.9649C18.8474 14.2744 17.943 13.8865 17 13.8865C16.057 13.8865 15.1526 14.2744 14.4859 14.9649C13.8191 15.6554 13.4445 16.5919 13.4445 17.5684C13.4445 18.5449 13.8191 19.4814 14.4859 20.1719C15.1526 20.8624 16.057 21.2503 17 21.2503Z" fill="#D12136" stroke="#F6F7FF" stroke-width="0.5"/>
</svg>

<svg width="34" height="42" fill="none" xmlns="http://www.w3.org/2000/svg"><path d="M28.314 29.284L17 41 5.686 29.284a16.759 16.759 0 01-4.379-8.483 17.12 17.12 0 01.911-9.573C3.429 8.201 5.48 5.613 8.11 3.792A15.612 15.612 0 0117 1c3.165 0 6.258.972 8.89 2.792 2.63 1.82 4.681 4.409 5.892 7.436a17.117 17.117 0 01.91 9.573 16.76 16.76 0 01-4.378 8.483zM17 21.25c.943 0 1.847-.388 2.514-1.078a3.75 3.75 0 001.041-2.604 3.75 3.75 0 00-1.04-2.603A3.495 3.495 0 0017 13.886c-.943 0-1.847.388-2.514 1.079a3.75 3.75 0 00-1.042 2.603 3.75 3.75 0 001.042 2.604A3.494 3.494 0 0017 21.25z" fill="#D12136" stroke="#F6F7FF" stroke-width=".5"/></svg>
